icons/badge/info/square.svg

<svg width="32" height="32" viewBox="0 0 32 32" fill="none" xmlns="http://www.w3.org/2000/svg">
<path fill-rule="evenodd" clip-rule="evenodd" d="M4.66675 2.66669C3.56218 2.66669 2.66675 3.56212 2.66675 4.66669V27.3334C2.66675 28.4379 3.56218 29.3334 4.66675 29.3334H27.3334C28.438 29.3334 29.3334 28.4379 29.3334 27.3334V4.66669C29.3334 3.56212 28.438 2.66669 27.3334 2.66669H4.66675ZM4.66675 4.66669L27.3334 4.66669L27.3334 27.3334H4.66675V4.66669ZM19 21H17V16V15H16H14V17H15V21H13V23H19V21ZM17.5 9H14.5V12H17.5V9Z" fill="black"/>
</svg>

<svg viewBox="0 0 32 32" xmlns="http://www.w3.org/2000/svg"><path fill-rule="evenodd" d="M4.667 2.667a2 2 0 00-2 2v22.666a2 2 0 002 2h22.666a2 2 0 002-2V4.667a2 2 0 00-2-2H4.667zm0 2h22.666v22.666H4.667V4.667zM19 21h-2v-6h-3v2h1v4h-2v2h6v-2zM17.5 9h-3v3h3V9z"/></svg>
